apps/scalable/sayonara.svg

<svg xmlns="http://www.w3.org/2000/svg" style="isolation:isolate" width="256" height="256"><defs><filter id="a" width="270.648" height="254.338" x="-7.32" y="2.95" filterUnits="userSpaceOnUse"><feGaussianBlur xmlns="http://www.w3.org/2000/svg" in="SourceGraphic" stdDeviation="4.294"/><feOffset xmlns="http://www.w3.org/2000/svg" dy="4" result="pf_100_offsetBlur"/><feFlood xmlns="http://www.w3.org/2000/svg" flood-opacity=".4"/><feComposite xmlns="http://www.w3.org/2000/svg" in2="pf_100_offsetBlur" operator="in" result="pf_100_dropShadow"/><feBlend xmlns="http://www.w3.org/2000/svg" in="SourceGraphic" in2="pf_100_dropShadow"/></filter></defs><path fill="#333" d="M165.685 11.947c74.055 0 84.639 10.557 84.639 84.544v59.251c0 73.986-10.584 84.543-84.639 84.543h-75.37c-74.055 0-84.639-10.557-84.639-84.543V96.491c0-73.987 10.584-84.544 84.639-84.544h75.37z" filter="url(#a)"/><path fill="#FFF" d="M5.676 126.116v29.626c0 73.986 10.584 84.543 84.639 84.543h75.37c74.055 0 84.639-10.557 84.639-84.543v-29.626H5.676z" opacity=".1"/><path fill="#FFF" d="M128 11.947v228.338h37.685c74.055 0 84.639-10.557 84.639-84.543V96.491c0-73.987-10.584-84.544-84.639-84.544H128z" opacity=".2"/><g opacity=".4"><linearGradient id="b" x1=".517" x2=".517" y2="1"><stop offset="0%" stop-color="#fff"/><stop offset="12.5%" stop-opacity=".098" stop-color="#fff"/><stop offset="92.5%" stop-opacity=".098"/><stop offset="100%" stop-opacity=".498"/></linearGradient><path fill="none" stroke="url(#b)" stroke-linecap="round" stroke-linejoin="round" stroke-width="4.077" d="M165.685 11.947c74.055 0 84.639 10.557 84.639 84.544v59.251c0 73.986-10.584 84.543-84.639 84.543h-75.37c-74.055 0-84.639-10.557-84.639-84.543V96.491c0-73.987 10.584-84.544 84.639-84.544h75.37z" vector-effect="non-scaling-stroke"/></g><path fill="#666" stroke="#FFF" stroke-linecap="round" stroke-linejoin="round" stroke-width="2" d="M154.406 46c51.892 0 59.308 7.398 59.308 59.241v41.518c0 51.843-7.416 59.241-59.308 59.241h-52.812c-51.892 0-59.308-7.398-59.308-59.241v-41.518C42.286 53.398 49.702 46 101.594 46h52.812z" vector-effect="non-scaling-stroke" opacity=".2"/><circle fill="#FFF" r="1" transform="translate(78.299 91.765) scale(12.931)" vector-effect="non-scaling-stroke"/><path fill="#FFF" d="M109.939 78.042h74.092a6.604 6.604 0 0 1 6.601 6.601v13.741a6.604 6.604 0 0 1-6.601 6.601h-74.092a6.604 6.604 0 0 1-6.6-6.601V84.643a6.604 6.604 0 0 1 6.6-6.601z"/><circle fill="#FFF" r="1" transform="translate(78.299 126.252) scale(12.931)" vector-effect="non-scaling-stroke"/><path fill="#FFF" d="M109.939 112.528h74.092a6.604 6.604 0 0 1 6.601 6.601v13.741a6.604 6.604 0 0 1-6.601 6.601h-74.092a6.604 6.604 0 0 1-6.6-6.601v-13.741a6.604 6.604 0 0 1 6.6-6.601z"/><circle fill="#FB7C38" r="1" transform="translate(78.299 160.739) scale(12.931)" vector-effect="non-scaling-stroke"/><path fill="#FB7C38" d="M109.939 147.015h74.092a6.604 6.604 0 0 1 6.601 6.601v13.741a6.604 6.604 0 0 1-6.601 6.601h-74.092a6.604 6.604 0 0 1-6.6-6.601v-13.741a6.604 6.604 0 0 1 6.6-6.601z"/></svg>

<svg xmlns="http://www.w3.org/2000/svg" style="isolation:isolate" width="256" height="256" viewBox="0 0 256 256">
 <defs>
  <filter id="sjYIq1m4QiaQUqeBL8UvYig91xroZKFU" width="270.648" height="254.338" x="-7.32" y="2.95" filterUnits="userSpaceOnUse">
   <feGaussianBlur xmlns="http://www.w3.org/2000/svg" in="SourceGraphic" stdDeviation="4.294"/>
   <feOffset xmlns="http://www.w3.org/2000/svg" dx="0" dy="4" result="pf_100_offsetBlur"/>
   <feFlood xmlns="http://www.w3.org/2000/svg" flood-opacity=".4"/>
   <feComposite xmlns="http://www.w3.org/2000/svg" in2="pf_100_offsetBlur" operator="in" result="pf_100_dropShadow"/>
   <feBlend xmlns="http://www.w3.org/2000/svg" in="SourceGraphic" in2="pf_100_dropShadow" mode="normal"/>
  </filter>
 </defs>
 <g filter="url(#sjYIq1m4QiaQUqeBL8UvYig91xroZKFU)">
  <path fill="#333333" d="M 165.685 11.947 C 239.74 11.947 250.324 22.504 250.324 96.491 L 250.324 155.742 C 250.324 229.728 239.74 240.285 165.685 240.285 L 90.315 240.285 C 16.26 240.285 5.676 229.728 5.676 155.742 L 5.676 96.491 C 5.676 22.504 16.26 11.947 90.315 11.947 L 165.685 11.947 Z"/>
 </g>
 <g opacity=".1">
  <path fill="#FFFFFF" d="M 5.676 126.116 L 5.676 155.742 C 5.676 229.728 16.26 240.285 90.315 240.285 L 165.685 240.285 C 239.74 240.285 250.324 229.728 250.324 155.742 L 250.324 126.116 L 5.676 126.116 Z"/>
 </g>
 <g opacity=".2">
  <path fill="#FFFFFF" d="M 128 11.947 L 128 240.285 L 165.685 240.285 C 239.74 240.285 250.324 229.728 250.324 155.742 L 250.324 96.491 C 250.324 22.504 239.74 11.947 165.685 11.947 L 128 11.947 Z"/>
 </g>
 <g opacity=".4">
  <linearGradient id="_lgradient_161" x1=".517" x2=".517" y1="0" y2="1">
   <stop offset="0%" style="stop-color:rgb(255,255,255)"/>
   <stop offset="12.5%" stop-opacity=".098" style="stop-color:rgb(255,255,255)"/>
   <stop offset="92.5%" stop-opacity=".098" style="stop-color:rgb(0,0,0)"/>
   <stop offset="100%" stop-opacity=".498" style="stop-color:rgb(0,0,0)"/>
  </linearGradient>
  <path fill="none" stroke="url(#_lgradient_161)" stroke-linecap="round" stroke-linejoin="round" stroke-width="4.077" d="M 165.685 11.947 C 239.74 11.947 250.324 22.504 250.324 96.491 L 250.324 155.742 C 250.324 229.728 239.74 240.285 165.685 240.285 L 90.315 240.285 C 16.26 240.285 5.676 229.728 5.676 155.742 L 5.676 96.491 C 5.676 22.504 16.26 11.947 90.315 11.947 L 165.685 11.947 Z" vector-effect="non-scaling-stroke"/>
 </g>
 <g opacity=".2">
  <path fill="#666666" stroke="#FFFFFF" stroke-linecap="round" stroke-linejoin="round" stroke-width="2" d="M 154.406 46 C 206.298 46 213.714 53.398 213.714 105.241 L 213.714 146.759 C 213.714 198.602 206.298 206 154.406 206 L 101.594 206 C 49.702 206 42.286 198.602 42.286 146.759 L 42.286 105.241 C 42.286 53.398 49.702 46 101.594 46 L 154.406 46 Z" vector-effect="non-scaling-stroke"/>
 </g>
 <g>
  <circle fill="#FFFFFF" cx="0" cy="0" r="1" transform="matrix(12.931,0,0,12.931,78.299,91.765)" vector-effect="non-scaling-stroke"/>
  <path fill="#FFFFFF" d="M 109.939 78.042 L 184.031 78.042 C 187.674 78.042 190.632 81 190.632 84.643 L 190.632 98.384 C 190.632 102.027 187.674 104.985 184.031 104.985 L 109.939 104.985 C 106.296 104.985 103.339 102.027 103.339 98.384 L 103.339 84.643 C 103.339 81 106.296 78.042 109.939 78.042 Z"/>
  <circle fill="#FFFFFF" cx="0" cy="0" r="1" transform="matrix(12.931,0,0,12.931,78.299,126.252)" vector-effect="non-scaling-stroke"/>
  <path fill="#FFFFFF" d="M 109.939 112.528 L 184.031 112.528 C 187.674 112.528 190.632 115.486 190.632 119.129 L 190.632 132.87 C 190.632 136.513 187.674 139.471 184.031 139.471 L 109.939 139.471 C 106.296 139.471 103.339 136.513 103.339 132.87 L 103.339 119.129 C 103.339 115.486 106.296 112.528 109.939 112.528 Z"/>
  <circle fill="#FB7C38" cx="0" cy="0" r="1" transform="matrix(12.931,0,0,12.931,78.299,160.739)" vector-effect="non-scaling-stroke"/>
  <path fill="#FB7C38" d="M 109.939 147.015 L 184.031 147.015 C 187.674 147.015 190.632 149.973 190.632 153.616 L 190.632 167.357 C 190.632 171 187.674 173.958 184.031 173.958 L 109.939 173.958 C 106.296 173.958 103.339 171 103.339 167.357 L 103.339 153.616 C 103.339 149.973 106.296 147.015 109.939 147.015 Z"/>
 </g>
</svg>
